src/actions/24/filename-group-length.svg

<svg xmlns="http://www.w3.org/2000/svg" viewBox="0 0 24 24">
    <path d="M5 4v14h4v2h5v-1h-4V8h8v4h1V7h-2V4H5zm1 1h10v2H9v10H6V5zm11.5 8a3.5 3.5 0 0 0-3.5 3.5 3.5 3.5 0 0 0 3.5 3.5 3.5 3.5 0 0 0 3.5-3.5 3.5 3.5 0 0 0-3.5-3.5zm0 1a2.5 2.5 0 0 1 2.5 2.5 2.5 2.5 0 0 1-2.5 2.5 2.5 2.5 0 0 1-2.5-2.5 2.5 2.5 0 0 1 2.5-2.5zm-.5 1v3h2v-1h-1v-2h-1z" style="fill:currentColor;fill-opacity:1;stroke:none;color:#050505;opacity:.7"/>
</svg>

<svg xmlns="http://www.w3.org/2000/svg" viewBox="0 0 24 24">
  <defs id="defs3051">
    <style type="text/css" id="current-color-scheme">
      .ColorScheme-Text {
        color:#363636;
      }
      </style>
  </defs>
 <path style="fill:currentColor;fill-opacity:1;stroke:none" 
     d="M 5 4 L 5 5 L 5 18 L 6 18 L 8 18 L 9 18 L 9 19 L 9 20 L 14 20 L 14 19 L 10 19 L 10 8 L 18 8 L 18 12 L 19 12 L 19 8 L 19 7 L 17 7 L 17 4 L 16 4 L 6 4 L 5 4 z M 6 5 L 16 5 L 16 7 L 9 7 L 9 8 L 9 17 L 8 17 L 6 17 L 6 5 z M 17.5 13 A 3.5 3.5 0 0 0 14 16.5 A 3.5 3.5 0 0 0 17.5 20 A 3.5 3.5 0 0 0 21 16.5 A 3.5 3.5 0 0 0 17.5 13 z M 17.5 14 A 2.5 2.5 0 0 1 20 16.5 A 2.5 2.5 0 0 1 17.5 19 A 2.5 2.5 0 0 1 15 16.5 A 2.5 2.5 0 0 1 17.5 14 z M 17 15 L 17 18 L 18 18 L 19 18 L 19 17 L 18 17 L 18 15 L 17 15 z "
     class="ColorScheme-Text"
     />
</svg>
